src/topics/icons/wiredtree.svg

<svg height="294" preserveAspectRatio="xMidYMid" viewBox="0 0 256 294" width="256" xmlns="http://www.w3.org/2000/svg"><path d="m256 77.125v138.058c0 1.575-.852 3.067-2.209 3.884l-124.196 74.046c-.692.408-1.492.634-2.317.634-.808 0-1.601-.226-2.3-.634l-122.737-71.646c-1.383-.793-2.241-2.292-2.241-3.91v-142.817c0-1.634.875-3.144 2.3-3.934l123.221-70.221c.673-.394 1.448-.585 2.233-.585.807 0 1.615.209 2.308.626l123.694 72.595c1.383.803 2.244 2.3 2.244 3.904"/><path d="m123.949 70.046-22.086 9.317 26.169 11.036 40.289-16.996c3.293-1.392 7.085.158 8.477 3.442.35.844.509 1.71.509 2.559v22.712c.008 2.532-1.475 4.95-3.96 5.993l-42.783 18.053c-.024.007-.05.015-.074.024-.067.032-.14.056-.208.082-.118.041-.232.091-.359.124-.005 0-.015.008-.023.008-.082.027-.167.045-.258.068-.109.024-.217.056-.326.082-.015 0-.024.009-.033.009-.058.006-.117.015-.176.024-.135.026-.276.05-.417.058-.145.015-.285.024-.426.024-.074 0-.156.008-.232.008-.083 0-.159-.008-.241-.008-.144 0-.285-.006-.426-.024h-.009c-.132-.008-.273-.035-.409-.058-.058-.006-.109-.015-.167-.024-.017 0-.024-.009-.041-.009-.108-.023-.217-.058-.334-.082-.082-.026-.168-.044-.25-.068-.006 0-.014 0-.023-.008-.127-.032-.241-.082-.367-.124-.068-.026-.132-.052-.2-.076-.027-.014-.053-.023-.076-.032l-33.798-14.261v8.75l36.338 15.328 40.289-16.996c3.293-1.393 7.085.149 8.478 3.442.35.835.508 1.701.508 2.55v22.729c.009 2.535-1.475 4.944-3.96 5.993l-42.783 18.044c-.024.015-.05.024-.074.033-.064.026-.14.05-.199.076-.118.05-.232.091-.367.133-.006 0-.015 0-.024.008-.082.018-.167.036-.25.059-.109.024-.226.065-.335.083-.015 0-.024.008-.032.008-.059.006-.109.015-.159.024-.144.026-.285.05-.426.068h-.009c-.144.017-.285.017-.426.017-.073.01-.155.018-.232.018-.082 0-.158-.009-.231-.018-.153 0-.285 0-.435-.017-.144-.018-.285-.044-.435-.068-.05-.006-.1-.015-.15-.024-.017 0-.023-.008-.041-.008-.109-.015-.217-.059-.326-.083-.083-.026-.168-.041-.259-.059-.006-.008-.014-.008-.023-.008-.127-.042-.241-.083-.368-.133-.067-.026-.131-.053-.199-.076-.026-.009-.053-.015-.077-.033l-33.797-14.252v8.744l36.338 15.336 40.289-17.002c3.293-1.383 7.085.159 8.478 3.452.35.825.508 1.698.508 2.541v22.729c.009 2.535-1.474 4.944-3.96 5.993l-32.382 13.661v16.761c0 3.566-2.899 6.459-6.468 6.459-3.575 0-6.468-2.893-6.468-6.459v-21.047c0-2.476 1.383-4.618 3.416-5.701l-.018-.033 32.94-13.894v-8.751l-33.806 14.262c-.024.009-.05.015-.074.032-.064.027-.14.053-.199.077-.118.043-.232.085-.367.126-.006.009-.015.009-.024.009-.082.026-.167.044-.258.067-.109.024-.217.059-.326.083-.015 0-.024.009-.033.009-.058.009-.108.009-.158.017-.144.027-.294.05-.435.068-.144.006-.285.015-.426.023-.074 0-.156.009-.232.009-.082 0-.158-.009-.232-.009-.152-.005-.285-.014-.435-.023h-.009c-.144-.018-.285-.044-.426-.068-.05-.009-.1-.009-.15-.017-.017 0-.023-.009-.041-.009-.108-.024-.216-.059-.334-.083-.082-.026-.168-.044-.25-.067-.006 0-.014 0-.023-.009-.126-.044-.241-.085-.367-.126-.067-.035-.132-.05-.2-.077-.026-.015-.053-.024-.076-.032l-42.784-18.045c-2.485-1.051-3.968-3.46-3.959-6.001v-22.72c0-.849.159-1.716.508-2.55 1.392-3.293 5.185-4.835 8.477-3.451l40.299 17.002 36.338-15.328v-8.75l-33.806 14.261c-.024.006-.05.015-.074.024-.064.023-.132.05-.199.073-.118.053-.232.094-.368.136-.005 0-.015 0-.023.008-.082.027-.167.045-.25.068-.109.024-.226.056-.335.073-.015.009-.024.009-.033.009-.067.015-.131.024-.199.033-.127.018-.25.041-.377.059h-.017c-.141.015-.282.015-.417.023-.083 0-.165.009-.241.009-.082 0-.167-.009-.25-.009-.135-.005-.276-.005-.417-.023-.126-.018-.259-.041-.385-.059-.067-.009-.132-.015-.2-.033-.017 0-.023 0-.04-.009-.109-.014-.218-.049-.318-.073-.091-.026-.176-.044-.267-.068-.006-.008-.014-.008-.024-.008-.123-.044-.24-.085-.349-.127-.076-.032-.15-.049-.217-.082-.027-.006-.053-.015-.077-.024l-42.783-18.053c-2.485-1.049-3.969-3.458-3.96-5.993v-22.712c0-.857.159-1.724.509-2.558 1.391-3.292 5.184-4.835 8.477-3.442l40.298 16.996 36.339-15.327v-8.751l-33.807 14.253c-.023.014-.05.022-.073.032-.064.032-.132.05-.2.073-.117.041-.232.091-.367.133-.006 0-.015 0-.024.008-.082.027-.167.036-.249.059-.109.032-.226.059-.335.082-.015 0-.024.01-.033.01-.058.006-.117.015-.176.023-.133.027-.276.05-.409.059l-.008.009c-.145.006-.285.015-.426.023-.074 0-.156.009-.232.009-.083 0-.159-.009-.241-.009-.144-.005-.285-.014-.426-.023-.141-.018-.276-.044-.418-.068-.058-.006-.108-.014-.167-.023-.017 0-.024-.01-.041-.01-.109-.023-.217-.05-.326-.082-.083-.026-.168-.035-.259-.059-.006-.008-.014-.008-.024-.008-.126-.042-.241-.092-.358-.133-.067-.023-.141-.041-.208-.073-.027-.007-.053-.015-.077-.024l-42.725-18.027c-.425-.176-.825-.394-1.192-.643-.067-.041-.126-.091-.184-.133-.109-.073-.209-.159-.309-.241-.091-.076-.164-.141-.241-.217-.076-.067-.149-.132-.217-.2-.085-.082-.152-.167-.226-.241-.067-.076-.132-.152-.2-.226-.058-.073-.117-.158-.176-.231-.067-.092-.132-.185-.199-.276-.045-.068-.086-.132-.118-.2-.076-.118-.141-.232-.208-.359-.024-.04-.05-.099-.074-.149-.065-.136-.132-.276-.191-.417-.018-.042-.033-.092-.05-.133-.058-.15-.108-.3-.158-.45-.018-.058-.026-.123-.05-.191-.032-.132-.068-.267-.1-.399-.027-.159-.041-.308-.068-.458-.006-.059-.014-.109-.023-.159-.068-.641-.033-1.292.1-1.942.023-.117.058-.235.082-.358.023-.082.041-.177.073-.259.124-.417.291-.816.5-1.192.067-.117.14-.232.208-.35.041-.058.077-.125.109-.184.105-.154.214-.294.331-.435.009-.019.024-.042.041-.06.117-.14.252-.281.376-.417.018-.017.033-.023.05-.04.114-.124.249-.232.382-.35.023-.023.05-.05.082-.073.109-.091.232-.185.358-.276.05-.032.101-.068.142-.1.108-.076.225-.141.334-.209.076-.044.141-.085.217-.117.1-.059.2-.1.3-.15.083-.041.177-.086.259-.118l.023-.017c.017 0 .024-.009.041-.018l36.124-15.236.01.009c.044-.017.076-.032.117-.05 3.293-1.392 7.076.15 8.477 3.443.341.825.509 1.674.509 2.509v.017c-.01 2.517-1.493 4.909-3.96 5.951-.044.018-.086.023-.126.041z" fill="#00aa90"/><path d="m79.241 99.64c-.35.834-.509 1.701-.509 2.558v22.712c-.009 2.535 1.475 4.944 3.96 5.993l42.783 18.053c.024.009.05.018.077.024.067.033.141.05.217.082.109.042.226.083.349.127.01 0 .018 0 .024.008.091.024.176.042.267.068.1.024.209.059.318.073.017.009.023.009.04.009.068.018.133.024.2.033.126.018.259.041.385.059.103.013.204.014.305.017v-13.636l-35.966-15.171v-8.75l33.798 14.261c.023.009.049.018.076.032.068.024.132.05.2.076.126.042.24.092.367.124.009.008.017.008.023.008.082.024.168.042.25.068.117.024.226.059.334.082.017 0 .024.009.041.009.058.009.109.018.167.024.136.023.277.05.409.058h.009c.097.012.194.013.292.016v-13.615l-39.939-16.844c-3.293-1.393-7.086.15-8.477 3.442zm-.456-19.454c.027.15.041.299.068.458.032.132.068.267.1.399.024.068.032.133.05.191.05.15.1.3.158.45.017.041.032.091.05.133.059.141.126.281.191.417.024.05.05.109.074.149.067.127.132.241.208.359.032.068.073.132.118.2.067.091.132.184.199.276.059.073.118.158.176.231.068.074.133.15.2.226.074.074.141.159.226.241.068.068.141.133.217.2.077.076.15.141.241.217.1.082.2.168.309.241.058.042.117.092.184.133.367.249.767.467 1.192.643l42.725 18.027c.024.009.05.017.077.024.067.032.141.05.208.073.118.041.232.091.358.133.01 0 .018 0 .024.008.091.024.176.033.259.059.109.032.217.059.326.082.017 0 .024.01.041.01.059.009.109.017.167.023.142.024.277.05.418.068.102.006.204.012.308.017v-13.633l-25.794-10.878 22.086-9.317h-.028c.04-.018.082-.023.126-.041 1.774-.75 3.035-2.198 3.61-3.887v-4.148c-.05-.148-.098-.296-.159-.442-1.401-3.293-5.184-4.835-8.477-3.443-.041.018-.073.033-.117.05l-.01-.009-36.124 15.236c-.017.009-.024.018-.041.018l-.023.017c-.082.032-.176.077-.259.118-.1.05-.2.091-.3.15-.076.032-.141.073-.217.117-.109.068-.226.133-.334.209-.041.032-.092.068-.142.1-.126.091-.249.185-.358.276-.032.023-.059.05-.082.073-.133.118-.268.226-.382.35-.017.017-.032.023-.05.04-.124.136-.259.277-.376.417-.017.018-.032.041-.041.06-.117.141-.226.281-.331.435-.032.059-.068.126-.109.184-.068.118-.141.233-.208.35-.209.376-.376.775-.5 1.192-.032.082-.05.177-.073.259-.024.123-.059.241-.082.358-.133.65-.168 1.301-.1 1.942.009.05.017.1.023.159zm48.872 101.226-35.97-15.181v-8.744l33.798 14.252c.023.018.05.024.076.033.068.023.132.05.199.076.127.05.241.091.368.133.009 0 .017 0 .023.008.091.018.176.033.259.059.109.024.217.068.326.083.018 0 .024.008.041.008.05.009.1.018.15.024.15.024.291.05.435.068.101.012.197.011.295.012v-13.624l-39.936-16.848c-3.292-1.384-7.085.158-8.477 3.451-.349.834-.508 1.701-.508 2.55v22.72c-.009 2.541 1.474 4.95 3.959 6.001l42.784 18.045c.023.008.05.017.076.032.068.027.133.042.2.077.126.041.241.082.367.126.009.009.017.009.023.009.082.023.168.041.25.067.118.024.226.059.334.083.018 0 .024.009.041.009.05.008.1.008.15.017.141.024.282.05.426.068h.009c.104.006.202.011.302.016z" fill="#61c4b6"/></svg>

<?xml version="1.0" encoding="UTF-8" standalone="no"?>
<svg width="256px" height="294px" viewBox="0 0 256 294" version="1.1" xmlns="http://www.w3.org/2000/svg" xmlns:xlink="http://www.w3.org/1999/xlink" preserveAspectRatio="xMidYMid">
	<g>
		<path d="M256,77.125 L256,215.183 C256,216.758 255.148,218.25 253.791,219.067 L129.595,293.113 C128.903,293.521 128.103,293.747 127.278,293.747 C126.47,293.747 125.677,293.521 124.978,293.113 L2.241,221.467 C0.858,220.674 0,219.175 0,217.557 L0,74.74 C0,73.106 0.875,71.596 2.3,70.806 L125.521,0.585 C126.194,0.191 126.969,0 127.754,0 C128.561,0 129.369,0.209 130.062,0.626 L253.756,73.221 C255.139,74.024 256,75.521 256,77.125" fill="#000000"></path>
		<path d="M123.949,70.046 L101.863,79.363 L128.032,90.399 L168.321,73.403 C171.614,72.011 175.406,73.561 176.798,76.845 C177.148,77.689 177.307,78.555 177.307,79.404 L177.307,102.116 C177.315,104.648 175.832,107.066 173.347,108.109 L130.564,126.162 C130.54,126.169 130.514,126.177 130.49,126.186 C130.423,126.218 130.35,126.242 130.282,126.268 C130.164,126.309 130.05,126.359 129.923,126.392 C129.918,126.392 129.908,126.4 129.9,126.4 C129.818,126.427 129.733,126.445 129.642,126.468 C129.533,126.492 129.425,126.524 129.316,126.55 C129.301,126.55 129.292,126.559 129.283,126.559 C129.225,126.565 129.166,126.574 129.107,126.583 C128.972,126.609 128.831,126.633 128.69,126.641 C128.545,126.656 128.405,126.665 128.264,126.665 C128.19,126.665 128.108,126.673 128.032,126.673 C127.949,126.673 127.873,126.665 127.791,126.665 C127.647,126.665 127.506,126.659 127.365,126.641 L127.356,126.641 C127.224,126.633 127.083,126.606 126.947,126.583 C126.889,126.577 126.838,126.568 126.78,126.559 C126.763,126.559 126.756,126.55 126.739,126.55 C126.631,126.527 126.522,126.492 126.405,126.468 C126.323,126.442 126.237,126.424 126.155,126.4 C126.149,126.4 126.141,126.4 126.132,126.392 C126.005,126.36 125.891,126.31 125.765,126.268 C125.697,126.242 125.633,126.216 125.565,126.192 C125.538,126.178 125.512,126.169 125.489,126.16 L91.691,111.899 L91.691,120.649 L128.029,135.977 L168.318,118.981 C171.611,117.588 175.403,119.13 176.796,122.423 C177.146,123.258 177.304,124.124 177.304,124.973 L177.304,147.702 C177.313,150.237 175.829,152.646 173.344,153.695 L130.561,171.739 C130.537,171.754 130.511,171.763 130.487,171.772 C130.423,171.798 130.347,171.822 130.288,171.848 C130.17,171.898 130.056,171.939 129.921,171.981 C129.915,171.981 129.906,171.981 129.897,171.989 C129.815,172.007 129.73,172.025 129.647,172.048 C129.538,172.072 129.421,172.113 129.312,172.131 C129.297,172.131 129.288,172.139 129.28,172.139 C129.221,172.145 129.171,172.154 129.121,172.163 C128.977,172.189 128.836,172.213 128.695,172.231 L128.686,172.231 C128.542,172.248 128.401,172.248 128.26,172.248 C128.187,172.258 128.105,172.266 128.028,172.266 C127.946,172.266 127.87,172.257 127.797,172.248 C127.644,172.248 127.512,172.248 127.362,172.231 C127.218,172.213 127.077,172.187 126.927,172.163 C126.877,172.157 126.827,172.148 126.777,172.139 C126.76,172.139 126.754,172.131 126.736,172.131 C126.627,172.116 126.519,172.072 126.41,172.048 C126.327,172.022 126.242,172.007 126.151,171.989 C126.145,171.981 126.137,171.981 126.128,171.981 C126.001,171.939 125.887,171.898 125.76,171.848 C125.693,171.822 125.629,171.795 125.561,171.772 C125.535,171.763 125.508,171.757 125.484,171.739 L91.687,157.487 L91.687,166.231 L128.025,181.567 L168.314,164.565 C171.607,163.182 175.399,164.724 176.792,168.017 C177.142,168.842 177.3,169.715 177.3,170.558 L177.3,193.287 C177.309,195.822 175.826,198.231 173.34,199.28 L140.958,212.941 L140.958,229.702 C140.958,233.268 138.059,236.161 134.49,236.161 C130.915,236.161 128.022,233.268 128.022,229.702 L128.022,208.655 C128.022,206.179 129.405,204.037 131.438,202.954 L131.42,202.921 L164.36,189.027 L164.36,180.276 L130.554,194.538 C130.53,194.547 130.504,194.553 130.48,194.57 C130.416,194.597 130.34,194.623 130.281,194.647 C130.163,194.69 130.049,194.732 129.914,194.773 C129.908,194.782 129.899,194.782 129.89,194.782 C129.808,194.808 129.723,194.826 129.632,194.849 C129.523,194.873 129.415,194.908 129.306,194.932 C129.291,194.932 129.282,194.941 129.273,194.941 C129.215,194.95 129.165,194.95 129.115,194.958 C128.971,194.985 128.821,195.008 128.68,195.026 C128.536,195.032 128.395,195.041 128.254,195.049 C128.18,195.049 128.098,195.058 128.022,195.058 C127.94,195.058 127.864,195.049 127.79,195.049 C127.638,195.044 127.505,195.035 127.355,195.026 L127.346,195.026 C127.202,195.008 127.061,194.982 126.92,194.958 C126.87,194.949 126.82,194.949 126.77,194.941 C126.753,194.941 126.747,194.932 126.729,194.932 C126.621,194.908 126.513,194.873 126.395,194.849 C126.313,194.823 126.227,194.805 126.145,194.782 C126.139,194.782 126.131,194.782 126.122,194.773 C125.996,194.729 125.881,194.688 125.755,194.647 C125.688,194.612 125.623,194.597 125.555,194.57 C125.529,194.555 125.502,194.546 125.479,194.538 L82.695,176.493 C80.21,175.442 78.727,173.033 78.736,170.492 L78.736,147.772 C78.736,146.923 78.895,146.056 79.244,145.222 C80.636,141.929 84.429,140.387 87.721,141.771 L128.02,158.773 L164.358,143.445 L164.358,134.695 L130.552,148.956 C130.528,148.962 130.502,148.971 130.478,148.98 C130.414,149.003 130.346,149.03 130.279,149.053 C130.161,149.106 130.047,149.147 129.911,149.189 C129.906,149.189 129.896,149.189 129.888,149.197 C129.806,149.224 129.721,149.242 129.638,149.265 C129.529,149.289 129.412,149.321 129.303,149.338 C129.288,149.347 129.279,149.347 129.27,149.347 C129.203,149.362 129.139,149.371 129.071,149.38 C128.944,149.398 128.821,149.421 128.694,149.439 L128.677,149.439 C128.536,149.454 128.395,149.454 128.26,149.462 C128.177,149.462 128.095,149.471 128.019,149.471 C127.937,149.471 127.852,149.462 127.769,149.462 C127.634,149.457 127.493,149.457 127.352,149.439 C127.226,149.421 127.093,149.398 126.967,149.38 C126.9,149.371 126.835,149.365 126.767,149.347 C126.75,149.347 126.744,149.347 126.727,149.338 C126.618,149.324 126.509,149.289 126.409,149.265 C126.318,149.239 126.233,149.221 126.142,149.197 C126.136,149.189 126.128,149.189 126.118,149.189 C125.995,149.145 125.878,149.104 125.769,149.062 C125.693,149.03 125.619,149.013 125.552,148.98 C125.525,148.974 125.499,148.965 125.475,148.956 L82.692,130.903 C80.207,129.854 78.723,127.445 78.732,124.91 L78.732,102.198 C78.732,101.341 78.891,100.474 79.241,99.64 C80.632,96.348 84.425,94.805 87.718,96.198 L128.016,113.194 L164.355,97.867 L164.355,89.116 L130.548,103.369 C130.525,103.383 130.498,103.391 130.475,103.401 C130.411,103.433 130.343,103.451 130.275,103.474 C130.158,103.515 130.043,103.565 129.908,103.607 C129.902,103.607 129.893,103.607 129.884,103.615 C129.802,103.642 129.717,103.651 129.635,103.674 C129.526,103.706 129.409,103.733 129.3,103.756 C129.285,103.756 129.276,103.766 129.267,103.766 C129.209,103.772 129.15,103.781 129.091,103.789 C128.958,103.816 128.815,103.839 128.682,103.848 L128.674,103.857 C128.529,103.863 128.389,103.872 128.248,103.88 C128.174,103.88 128.092,103.889 128.016,103.889 C127.933,103.889 127.857,103.88 127.775,103.88 C127.631,103.875 127.49,103.866 127.349,103.857 C127.208,103.839 127.073,103.813 126.931,103.789 C126.873,103.783 126.823,103.775 126.764,103.766 C126.747,103.766 126.74,103.756 126.723,103.756 C126.614,103.733 126.506,103.706 126.397,103.674 C126.314,103.648 126.229,103.639 126.138,103.615 C126.132,103.607 126.124,103.607 126.114,103.607 C125.988,103.565 125.873,103.515 125.756,103.474 C125.689,103.451 125.615,103.433 125.548,103.401 C125.521,103.394 125.495,103.386 125.471,103.377 L82.746,85.35 C82.321,85.174 81.921,84.956 81.554,84.707 C81.487,84.666 81.428,84.616 81.37,84.574 C81.261,84.501 81.161,84.415 81.061,84.333 C80.97,84.257 80.897,84.192 80.82,84.116 C80.744,84.049 80.671,83.984 80.603,83.916 C80.518,83.834 80.451,83.749 80.377,83.675 C80.31,83.599 80.245,83.523 80.177,83.449 C80.119,83.376 80.06,83.291 80.001,83.218 C79.934,83.126 79.869,83.033 79.802,82.942 C79.757,82.874 79.716,82.81 79.684,82.742 C79.608,82.624 79.543,82.51 79.476,82.383 C79.452,82.343 79.426,82.284 79.402,82.234 C79.337,82.098 79.27,81.958 79.211,81.817 C79.193,81.775 79.178,81.725 79.161,81.684 C79.103,81.534 79.053,81.384 79.003,81.234 C78.985,81.176 78.977,81.111 78.953,81.043 C78.921,80.911 78.885,80.776 78.853,80.644 C78.826,80.485 78.812,80.336 78.785,80.186 C78.779,80.127 78.771,80.077 78.762,80.027 C78.694,79.386 78.729,78.735 78.862,78.085 C78.885,77.968 78.92,77.85 78.944,77.727 C78.967,77.645 78.985,77.55 79.017,77.468 C79.141,77.051 79.308,76.652 79.517,76.276 C79.584,76.159 79.657,76.044 79.725,75.926 C79.766,75.868 79.802,75.801 79.834,75.742 C79.939,75.588 80.048,75.448 80.165,75.307 C80.174,75.288 80.189,75.265 80.206,75.247 C80.323,75.107 80.458,74.966 80.582,74.83 C80.6,74.813 80.615,74.807 80.632,74.79 C80.746,74.666 80.881,74.558 81.014,74.44 C81.037,74.417 81.064,74.39 81.096,74.367 C81.205,74.276 81.328,74.182 81.454,74.091 C81.504,74.059 81.555,74.023 81.596,73.991 C81.704,73.915 81.821,73.85 81.93,73.782 C82.006,73.738 82.071,73.697 82.147,73.665 C82.247,73.606 82.347,73.565 82.447,73.515 C82.53,73.474 82.624,73.429 82.706,73.397 L82.729,73.38 C82.746,73.38 82.753,73.371 82.77,73.362 L118.894,58.126 L118.904,58.135 C118.948,58.118 118.98,58.103 119.021,58.085 C122.314,56.693 126.097,58.235 127.498,61.528 C127.839,62.353 128.007,63.202 128.007,64.037 L128.007,64.054 C127.997,66.571 126.514,68.963 124.047,70.005 C124.003,70.023 123.961,70.028 123.921,70.046 L123.949,70.046" fill="#00AA90"></path>
		<path d="M79.241,99.64 C78.891,100.474 78.732,101.341 78.732,102.198 L78.732,124.91 C78.723,127.445 80.207,129.854 82.692,130.903 L125.475,148.956 C125.499,148.965 125.525,148.974 125.552,148.98 C125.619,149.013 125.693,149.03 125.769,149.062 C125.878,149.104 125.995,149.145 126.118,149.189 C126.128,149.189 126.136,149.189 126.142,149.197 C126.233,149.221 126.318,149.239 126.409,149.265 C126.509,149.289 126.618,149.324 126.727,149.338 C126.744,149.347 126.75,149.347 126.767,149.347 C126.835,149.365 126.9,149.371 126.967,149.38 C127.093,149.398 127.226,149.421 127.352,149.439 C127.455,149.452 127.556,149.453 127.657,149.456 L127.657,135.82 L91.691,120.649 L91.691,111.899 L125.489,126.16 C125.512,126.169 125.538,126.178 125.565,126.192 C125.633,126.216 125.697,126.242 125.765,126.268 C125.891,126.31 126.005,126.36 126.132,126.392 C126.141,126.4 126.149,126.4 126.155,126.4 C126.237,126.424 126.323,126.442 126.405,126.468 C126.522,126.492 126.631,126.527 126.739,126.55 C126.756,126.55 126.763,126.559 126.78,126.559 C126.838,126.568 126.889,126.577 126.947,126.583 C127.083,126.606 127.224,126.633 127.356,126.641 L127.365,126.641 C127.462,126.653 127.559,126.654 127.657,126.657 L127.657,113.042 L87.718,96.198 C84.425,94.805 80.632,96.348 79.241,99.64 Z M78.785,80.186 C78.812,80.336 78.826,80.485 78.853,80.644 C78.885,80.776 78.921,80.911 78.953,81.043 C78.977,81.111 78.985,81.176 79.003,81.234 C79.053,81.384 79.103,81.534 79.161,81.684 C79.178,81.725 79.193,81.775 79.211,81.817 C79.27,81.958 79.337,82.098 79.402,82.234 C79.426,82.284 79.452,82.343 79.476,82.383 C79.543,82.51 79.608,82.624 79.684,82.742 C79.716,82.81 79.757,82.874 79.802,82.942 C79.869,83.033 79.934,83.126 80.001,83.218 C80.06,83.291 80.119,83.376 80.177,83.449 C80.245,83.523 80.31,83.599 80.377,83.675 C80.451,83.749 80.518,83.834 80.603,83.916 C80.671,83.984 80.744,84.049 80.82,84.116 C80.897,84.192 80.97,84.257 81.061,84.333 C81.161,84.415 81.261,84.501 81.37,84.574 C81.428,84.616 81.487,84.666 81.554,84.707 C81.921,84.956 82.321,85.174 82.746,85.35 L125.471,103.377 C125.495,103.386 125.521,103.394 125.548,103.401 C125.615,103.433 125.689,103.451 125.756,103.474 C125.874,103.515 125.988,103.565 126.114,103.607 C126.124,103.607 126.132,103.607 126.138,103.615 C126.229,103.639 126.314,103.648 126.397,103.674 C126.506,103.706 126.614,103.733 126.723,103.756 C126.74,103.756 126.747,103.766 126.764,103.766 C126.823,103.775 126.873,103.783 126.931,103.789 C127.073,103.813 127.208,103.839 127.349,103.857 C127.451,103.863 127.553,103.869 127.657,103.874 L127.657,90.241 L101.863,79.363 L123.949,70.046 L123.921,70.046 C123.961,70.028 124.003,70.023 124.047,70.005 C125.821,69.255 127.082,67.807 127.657,66.118 L127.657,61.97 C127.607,61.822 127.559,61.674 127.498,61.528 C126.097,58.235 122.314,56.693 119.021,58.085 C118.98,58.103 118.948,58.118 118.904,58.135 L118.894,58.126 L82.77,73.362 C82.753,73.371 82.746,73.38 82.729,73.38 L82.706,73.397 C82.624,73.429 82.53,73.474 82.447,73.515 C82.347,73.565 82.247,73.606 82.147,73.665 C82.071,73.697 82.006,73.738 81.93,73.782 C81.821,73.85 81.704,73.915 81.596,73.991 C81.555,74.023 81.504,74.059 81.454,74.091 C81.328,74.182 81.205,74.276 81.096,74.367 C81.064,74.39 81.037,74.417 81.014,74.44 C80.881,74.558 80.746,74.666 80.632,74.79 C80.615,74.807 80.6,74.813 80.582,74.83 C80.458,74.966 80.323,75.107 80.206,75.247 C80.189,75.265 80.174,75.288 80.165,75.307 C80.048,75.448 79.939,75.588 79.834,75.742 C79.802,75.801 79.766,75.868 79.725,75.926 C79.657,76.044 79.584,76.159 79.517,76.276 C79.308,76.652 79.141,77.051 79.017,77.468 C78.985,77.55 78.967,77.645 78.944,77.727 C78.92,77.85 78.885,77.968 78.862,78.085 C78.729,78.735 78.694,79.386 78.762,80.027 C78.771,80.077 78.779,80.127 78.785,80.186 Z M127.657,181.412 L91.687,166.231 L91.687,157.487 L125.485,171.739 C125.508,171.757 125.535,171.763 125.561,171.772 C125.629,171.795 125.693,171.822 125.76,171.848 C125.887,171.898 126.001,171.939 126.128,171.981 C126.137,171.981 126.145,171.981 126.151,171.989 C126.242,172.007 126.327,172.022 126.41,172.048 C126.519,172.072 126.627,172.116 126.736,172.131 C126.754,172.131 126.76,172.139 126.777,172.139 C126.827,172.148 126.877,172.157 126.927,172.163 C127.077,172.187 127.218,172.213 127.362,172.231 C127.463,172.243 127.559,172.242 127.657,172.243 L127.657,158.619 L87.721,141.771 C84.429,140.387 80.636,141.929 79.244,145.222 C78.895,146.056 78.736,146.923 78.736,147.772 L78.736,170.492 C78.727,173.033 80.21,175.442 82.695,176.493 L125.479,194.538 C125.502,194.546 125.529,194.555 125.555,194.57 C125.623,194.597 125.688,194.612 125.755,194.647 C125.881,194.688 125.996,194.729 126.122,194.773 C126.131,194.782 126.139,194.782 126.145,194.782 C126.227,194.805 126.313,194.823 126.395,194.849 C126.513,194.873 126.621,194.908 126.729,194.932 C126.747,194.932 126.753,194.941 126.77,194.941 C126.82,194.949 126.87,194.949 126.92,194.958 C127.061,194.982 127.202,195.008 127.346,195.026 L127.355,195.026 C127.459,195.032 127.557,195.037 127.657,195.042 L127.657,181.412 Z" fill="#61C4B6"></path>
	</g>
</svg>
